modules/map-icons/icons/spa.svg

<svg version="1.2" baseProfile="tiny" xmlns="http://www.w3.org/2000/svg" width="50" height="50" viewBox="0 0 50 50" overflow="inherit"><path d="M47.231 41h-16.231v4h16.397c1.348 0 1.603-1.175 1.603-1.175v-.97s-.012-1.855-1.769-1.855zm-2.245-.79c2.214 0 4.014-1.802 4.014-4.022 0-2.227-1.8-4.023-4.014-4.023-2.211 0-4.006 1.797-4.006 4.023 0 2.219 1.795 4.022 4.006 4.022zm-8.454-.21c2.106 0 3.8-1.484 3.8-3.587-.001-2.099-1.701-3.2-3.791-3.216l-5.541.702v6.101h5.532zm-18.009-26.067c2.459 0 4.448-2 4.448-4.467 0-2.467-1.989-4.466-4.448-4.466-2.457 0-4.449 1.999-4.449 4.466s1.992 4.467 4.449 4.467zm-4.542 14.456l-.04-.058-2.016-4.694-.003 9.363h6.025l1.316-1.4-3.569-1.374c-.846-.318-1.447-1.038-1.713-1.837zm1.277-.421c.195.438.556.793 1.01.956l6.877 2.549c.88.389 1.908-.015 2.294-.898.386-.889-.015-1.924-.896-2.311l-6.345-2.396-1.96-4.701 1.278-.476 1.661 4.028 4.823 1.788v-4.922l2.56 1.523 1.276 6.428c.313.918 1.304 1.401 2.218 1.084.905-.314 1.386-1.315 1.075-2.229l-1.43-6.191c-.094-.347-.293-.65-.562-.877-.733-.812-4.44-4.957-4.704-5.234-.387-.388-1.272-1.089-2.944-1.089h-6c-3.41 0-4.066 3.48-3.369 5.25l3.138 7.718zm14.742 6.032h-27.033c-.984 0-1.967.555-1.967 1.776v9.224h29v-11z"/></svg>

<svg version="1.2" baseProfile="tiny" xmlns="http://www.w3.org/2000/svg" width="50" height="50" overflow="inherit"><path d="M47.231 41H31v4h16.397A1.577 1.577 0 0 0 49 43.825v-.97S48.988 41 47.231 41zm-2.245-.79A4.02 4.02 0 0 0 49 36.188c0-2.227-1.8-4.023-4.014-4.023a4.013 4.013 0 0 0-4.006 4.023c0 2.219 1.795 4.022 4.006 4.022zM36.532 40c2.106 0 3.8-1.484 3.8-3.587-.001-2.099-1.701-3.2-3.791-3.216L31 33.899V40h5.532zM18.523 13.933c2.459 0 4.448-2 4.448-4.467C22.971 6.999 20.982 5 18.523 5c-2.457 0-4.449 1.999-4.449 4.466s1.992 4.467 4.449 4.467zm-4.542 14.456l-.04-.058-2.016-4.694L11.922 33h6.025l1.316-1.4-3.569-1.374c-.846-.318-1.447-1.038-1.713-1.837zm1.277-.421c.195.438.556.793 1.01.956l6.877 2.549a1.738 1.738 0 0 0 2.294-.898 1.758 1.758 0 0 0-.896-2.311l-6.345-2.396-1.96-4.701 1.278-.476 1.661 4.028L24 26.507v-4.922l2.56 1.523 1.276 6.428a1.737 1.737 0 0 0 2.218 1.084 1.76 1.76 0 0 0 1.075-2.229l-1.43-6.191a1.745 1.745 0 0 0-.562-.877c-.733-.812-4.44-4.957-4.704-5.234-.387-.388-1.272-1.089-2.944-1.089h-6c-3.41 0-4.066 3.48-3.369 5.25l3.138 7.718zM30 34H2.967C1.983 34 1 34.555 1 35.776V45h29V34z"/></svg>
